X:5
T:Petit Branle
S:http://www.fourwinds.demon.nl/branles.htm
Z:Jack Campin <http://www.campin.me.uk/> 2002
M:C|
L:1/8
K:D
fg|a2a2 a2b2|a3 gf2e2|d2A2 defg|e6  :|
fg|a2d2 agfe|d6    cd|e2A2 edcB|A6 Bc|
   d3 e f3 g|a6    ag|fef2 e3 d|d6  :|
